www/static/icons/cli.svg

<svg width="50" height="50" viewBox="0 0 50 50" fill="none" xmlns="http://www.w3.org/2000/svg">
<rect width="50" height="50" rx="6" fill="#EEFEEB"/>
<rect x="9" y="10" width="30" height="23" fill="#7AD28D"/>
<path d="M40.0423 6H9.95813C7.77233 6 6 7.76278 6 9.9368V40.0632C6 42.2368 7.77233 44 9.95813 44H40.0419C42.2277 44 44 42.2368 44 40.0632V9.9368C44.0004 7.76278 42.2281 6 40.0423 6ZM21.3923 20.1356L21.3244 20.2031L21.2463 20.2589C20.8086 20.5722 20.3094 20.9365 19.7202 21.3744C19.0753 21.8523 18.5095 22.2737 17.9894 22.6617C17.3879 23.1101 16.808 23.5404 16.2651 23.9411C15.7162 24.3464 15.1974 24.7239 14.7233 25.0638L14.6303 25.13L14.5267 25.1778C14.1336 25.3576 13.7371 25.4492 13.3466 25.4492C12.7319 25.4492 12.1838 25.2377 11.7627 24.8374C11.3263 24.4241 11.095 23.8794 11.095 23.2638C11.095 22.7183 11.2737 22.1998 11.6256 21.7231L11.7296 21.5825L11.8701 21.4774C12.2339 21.2055 12.6644 20.888 13.1479 20.5346C13.6382 20.1753 14.1251 19.8138 14.5938 19.4596C15.1053 19.0737 15.6016 18.7047 16.0685 18.3627C16.0753 18.3576 16.0817 18.3534 16.0881 18.3483C15.63 17.9979 15.1495 17.6259 14.66 17.2429C14.157 16.8503 13.6641 16.469 13.1959 16.1101C12.7145 15.7419 12.3086 15.4232 11.9915 15.1626L11.9003 15.0879L11.8255 14.9967C11.4133 14.493 11.2045 13.9407 11.2045 13.3555C11.2045 12.7509 11.4282 12.2088 11.8523 11.787C12.2764 11.3656 12.8312 11.1427 13.4561 11.1427C13.7685 11.1427 14.1043 11.2128 14.4821 11.3572L14.5793 11.3939L14.6685 11.4475C14.795 11.5231 14.9729 11.6498 15.4279 12.0247C15.7332 12.2763 16.1093 12.5715 16.5491 12.9033C17.0063 13.2491 17.4957 13.63 18.0051 14.0345C18.4993 14.428 18.9734 14.7962 19.4149 15.1293C19.8785 15.4806 20.2763 15.788 20.5976 16.043C20.9152 16.2963 21.1193 16.458 21.2093 16.5298C22.0083 17.1576 22.1764 17.8957 22.1764 18.404C22.1768 18.8381 22.0405 19.4904 21.3923 20.1356ZM36.6339 29.7584C36.2909 30.1334 35.8171 30.3968 35.2245 30.5446L35.0823 30.5805H25.0567L25.0028 30.5754C24.1045 30.4935 23.5887 30.0899 23.3145 29.7656C22.9447 29.3269 22.7495 28.8156 22.7495 28.2862C22.7495 27.7102 22.9719 27.174 23.3934 26.7362C23.8069 26.3064 24.3775 26.0577 25.0906 25.9964L25.1411 25.9918H35.1706L35.3196 26.0311C35.9292 26.1898 36.4038 26.4913 36.7315 26.9258C37.0525 27.3509 37.2151 27.8086 37.2151 28.2862C37.2146 28.8325 37.0138 29.3413 36.6339 29.7584Z" fill="#042024"/>
</svg>

<svg width="50" height="50" fill="none" xmlns="http://www.w3.org/2000/svg"><rect width="50" height="50" rx="6" fill="#EEFEEB"/><path fill="#7AD28D" d="M9 10h30v23H9z"/><path d="M40.042 6H9.958C7.772 6 6 7.763 6 9.937v30.126C6 42.237 7.772 44 9.958 44h30.084C42.228 44 44 42.237 44 40.063V9.937C44 7.763 42.228 6 40.042 6zm-18.65 14.136l-.068.067-.078.056c-.437.313-.937.677-1.526 1.115-.645.478-1.21.9-1.73 1.288-.602.448-1.182.878-1.725 1.28-.549.404-1.068.782-1.542 1.122l-.093.066-.103.048a2.83 2.83 0 01-1.18.271c-.615 0-1.163-.211-1.584-.612a2.116 2.116 0 01-.668-1.573c0-.546.179-1.064.53-1.54l.105-.142.14-.105c.364-.271.794-.589 1.278-.942.49-.36.977-.721 1.446-1.075a130.75 130.75 0 011.475-1.097l.02-.015c-.459-.35-.94-.722-1.429-1.105-.503-.393-.996-.774-1.464-1.133a45.575 45.575 0 01-1.204-.947l-.092-.075-.075-.091c-.412-.504-.62-1.056-.62-1.642 0-.604.223-1.146.647-1.568a2.224 2.224 0 011.604-.644c.313 0 .648.07 1.026.214l.097.037.09.053c.126.076.304.203.759.578.305.251.681.546 1.121.878.457.346.947.727 1.456 1.131.494.394.968.762 1.41 1.095.463.352.861.659 1.183.914l.611.487c.8.628.967 1.366.967 1.874 0 .434-.135 1.086-.784 1.732zm15.242 9.622c-.343.375-.817.639-1.41.787l-.142.035H25.057l-.054-.005c-.898-.081-1.414-.485-1.689-.81-.37-.438-.564-.95-.564-1.479 0-.576.222-1.112.643-1.55.414-.43.985-.678 1.698-.74l.05-.004h10.03l.149.04c.61.158 1.084.46 1.411.894.322.425.484.883.484 1.36a2.16 2.16 0 01-.581 1.472z" fill="#042024"/></svg>
